packages/icons/svg/Outline/github.svg

<svg width="24" height="24" viewBox="0 0 24 24" fill="none" xmlns="http://www.w3.org/2000/svg">
<g id="Icon/Outline/github">
<path id="Mask" fill-rule="evenodd" clip-rule="evenodd" d="M16.2402 22C15.6882 22 15.2402 21.553 15.2402 21V18.401C15.2872 17.738 15.0882 17.161 14.6972 16.742C14.4382 16.466 14.3582 16.068 14.4882 15.714C14.6182 15.359 14.9362 15.108 15.3122 15.065C17.7462 14.783 20.0002 13.947 20.0002 9.77401C20.0002 8.97401 19.7682 8.20301 19.3292 7.54701C18.9282 6.94901 18.7822 6.22001 18.9162 5.49401C19.0042 5.02101 18.9992 4.54001 18.9042 4.07501C18.5002 4.19501 17.8082 4.48001 16.8112 5.17401C16.5662 5.34401 16.2552 5.39501 15.9692 5.31501C14.1652 4.80801 12.2582 4.80801 10.4532 5.31501C10.1662 5.39501 9.85716 5.34401 9.61216 5.17401C8.62516 4.48701 7.93716 4.20101 7.51716 4.08301C7.42316 4.54401 7.41916 5.02101 7.50616 5.49101C7.63916 6.21301 7.48816 6.95001 7.08016 7.56801C6.64616 8.22701 6.41916 8.99701 6.42316 9.79701C6.42316 13.691 8.30216 14.73 11.1232 15.093C11.4952 15.141 11.8092 15.393 11.9372 15.746C12.0642 16.099 11.9832 16.493 11.7272 16.767C11.3402 17.182 11.1412 17.753 11.1802 18.334L11.1812 19.122C11.1832 19.162 11.1832 19.202 11.1812 19.242L11.1822 21C11.1822 21.553 10.7352 22 10.1822 22C9.63016 22 9.18216 21.553 9.18216 21V20.429C6.49716 20.779 4.96716 19.34 3.90616 18.34C3.46616 17.927 3.05216 17.536 2.74916 17.457C2.21416 17.318 1.89316 16.772 2.03216 16.238C2.17116 15.704 2.71716 15.378 3.25116 15.521C4.05016 15.729 4.64616 16.29 5.27716 16.884C6.29916 17.847 7.26916 18.759 9.18216 18.404V18.401C9.14516 17.872 9.22416 17.33 9.40716 16.817C7.35316 16.305 4.42316 14.812 4.42316 9.80201C4.41716 8.61001 4.75916 7.45601 5.41016 6.46701C5.53216 6.28201 5.57816 6.06501 5.53916 5.85401C5.33916 4.77101 5.45416 3.65901 5.87416 2.64301C5.98816 2.36701 6.21916 2.15601 6.50416 2.06801C6.83516 1.96601 8.05516 1.77101 10.3662 3.27101C12.2372 2.82201 14.1862 2.82201 16.0562 3.27101C18.3682 1.77101 19.5872 1.96501 19.9182 2.06801C20.2032 2.15601 20.4342 2.36701 20.5482 2.64301C20.9692 3.66101 21.0842 4.77201 20.8832 5.85801C20.8442 6.06701 20.8832 6.27201 20.9912 6.43501C21.6512 7.42201 22.0002 8.57601 22.0002 9.77401C22.0002 14.838 19.0772 16.313 17.0202 16.807C17.2042 17.336 17.2812 17.905 17.2372 18.478L17.2402 21C17.2402 21.553 16.7922 22 16.2402 22Z" fill="#000000"/>
</g>
</svg>

<svg fill="none" height="24" viewBox="0 0 24 24" width="24" xmlns="http://www.w3.org/2000/svg"><path clip-rule="evenodd" d="m16.2402 22.0001c-.552 0-1-.447-1-1v-2.599c.047-.663-.152-1.24-.543-1.659-.259-.276-.339-.674-.209-1.028.13-.355.448-.606.824-.649 2.434-.282 4.688-1.118 4.688-5.29099 0-.8-.232-1.571-.671-2.227-.401-.598-.547-1.327-.413-2.053.088-.473.083-.954-.012-1.419-.404.12-1.096.405-2.093 1.099-.245.17-.556.221-.842.141-1.804-.507-3.711-.507-5.516 0-.287.08-.59598.029-.84098-.141-.987-.687-1.675-.973-2.095-1.091-.094.461-.098.938-.011 1.408.133.722-.018 1.459-.426 2.077-.434.659-.661 1.429-.657 2.229 0 3.89399 1.879 4.93299 4.69998 5.29599.372.048.686.3.814.653.127.353.046.747-.21 1.021-.387.415-.586.986-.547 1.567l.001.788c.002.04.002.08 0 .12l.001 1.758c0 .553-.447 1-1 1-.55198 0-.99998-.447-.99998-1v-.571c-2.685.35-4.215-1.089-5.276-2.089-.44-.413-.854-.804-1.157-.883-.535-.139-.856-.685-.717-1.219s.685-.86 1.219-.717c.799.208 1.395.769 2.026 1.363 1.022.963 1.992 1.875 3.905 1.52v-.003c-.037-.529.042-1.071.225-1.584-2.054-.512-4.984-2.005-4.984-7.01499-.006-1.192.336-2.346.987-3.335.122-.185.168-.402.129-.613-.2-1.083-.085-2.195.335-3.211.114-.276.345-.487.63-.575.331-.102 1.551-.297 3.86198 1.203 1.871-.449 3.82-.449 5.69 0 2.312-1.5 3.531-1.306 3.862-1.203.285.088.516.299.63.575.421 1.018.536 2.129.335 3.215-.039.209 0 .414.108.577.66.987 1.009 2.141 1.009 3.339 0 5.06399-2.923 6.53899-4.98 7.03299.184.529.261 1.098.217 1.671l.003 2.522c0 .553-.448 1-1 1" fill="#6b7280" fill-rule="evenodd"/></svg>
